X:1
T:Title
%%score { ( 1 4 ) | ( 2 3 ) }
L:1/8
M:6/8
K:D
V:1 treble nm="Grand Piano"
V:4 treble 
V:2 bass 
V:3 bass 
V:1
 z3 z2[Q:1/4=100] D | F2 F FG[A,FA] | [GB]3 A2 F | [CE]2 [CE] [CA]2 [EG] | F3- F2 D | %5
 F2 F FG[A,FA] | [GB]3 A2 [A,DF] | [B,DE]2 [B,DG] [A,DF]2[K:bass] [G,CE] | %8
 [F,D]3- [F,D]2[K:treble] [A,FA] | [Fd]2 [Ac] [GB]2 [FA] | [FA]3 [DF]2 [FA] | [Fd]2 F FEF | %12
 [CE]3- [CE]2 [CE] | [DF]2 [DF] [DF][EG][FA] |[M:7/8] B2 c d3 [DGB] | %15
[M:3/4] [DFA]2 [DF] [A,DF]2[K:bass] [G,CE] |[M:5/8] [F,D]-[F,D]- [F,D]3 |] %17
V:2
 z3 z2 [D,F,] | z3 .D3 | z3 F2 [D,A,D] | [A,,A,]2 [A,,A,] [A,,E,]2 [A,,A,] | %4
 [D,A,D]3- [D,A,D]2 [D,F,] | [D,A,D]2 [D,A,D] DED, | z3 F2 D, | G,,2 G,, A,,2 A,, | D,3- D,2 D, | %9
 [D,A,]2 [D,A,] [D,D]2 [D,D] | [D,D]3 [D,A,]2 [D,A,] | [D,A,]2 [D,A,D] DC[D,A,D] | %12
 [A,,A,]3- [A,,A,]2 [A,,A,] | [D,A,]2 [D,A,] [D,A,]2 [D,D] |[M:7/8][K:treble] D2 z z z z2 | %15
[M:3/4][K:bass] A,2 A, A,,2 A,, |[M:5/8] D,-D,- D,3 |] %17
V:3
 x6 | [D,A,D]2 [D,A,D] [D,A,]-[D,A,E]D, | D,6 | x6 | x6 | z3 .[D,A,]3 | [D,D]6 | x6 | x6 | x6 | %10
 x6 | z3 .[D,A,]3 | x6 | x6 |[M:7/8][K:treble] [G,G]2- [G,-CG-] [G,B,G]2- [G,B,-G]/B,/G, | %15
[M:3/4][K:bass] x6 |[M:5/8] x5 |] %17
V:4
 x6 | x6 | D6 | x6 | x6 | x6 | x6 | x5[K:bass] x | x5[K:treble] x | x6 | x6 | x6 | x6 | x6 | %14
[M:7/8] x7 |[M:3/4] x5[K:bass] x |[M:5/8] x5 |] %17

